X:2204
L:1/8
M:4/4
K:D
 F | D>AF>A D>AF>A | E<=cc>G E2 (=CE) | D>AF>A D>AF>A | D<dd>A (GF)ED :| d>fA>f d>fA>f | 
 =c>de>f g2 (a/g/).f/.e/ | d>fA>f d>fA>f | d>ef>g a2 (b/a/).g/.f/ | d>fA>f d>fA>f | 
 =c>de>f g2 (e/f/g) | a>fg>e f>de>c | d>BA>G (GF)ED ||

